source/img/icon_bicycle.svg

<svg width="26" height="25" viewBox="0 0 26 25" fill="none" xmlns="http://www.w3.org/2000/svg">
<path d="M19.7031 21.875C18.7791 21.875 17.8759 21.6115 17.1076 21.1179C16.3393 20.6243 15.7405 19.9227 15.3869 19.1019C15.0333 18.2811 14.9408 17.3778 15.121 16.5064C15.3013 15.635 15.7462 14.8346 16.3996 14.2064C17.053 13.5781 17.8854 13.1503 18.7917 12.9769C19.6979 12.8036 20.6373 12.8926 21.491 13.2326C22.3446 13.5726 23.0743 14.1484 23.5876 14.8871C24.101 15.6258 24.375 16.4943 24.375 17.3828C24.3737 18.5738 23.881 19.7157 23.0052 20.5578C22.1293 21.4 20.9418 21.8737 19.7031 21.875ZM19.7031 14.4531C19.1005 14.4531 18.5114 14.6249 18.0104 14.9469C17.5093 15.2688 17.1188 15.7263 16.8882 16.2617C16.6576 16.797 16.5972 17.3861 16.7148 17.9544C16.8324 18.5227 17.1225 19.0447 17.5487 19.4544C17.9748 19.8641 18.5177 20.1432 19.1087 20.2562C19.6997 20.3692 20.3124 20.3112 20.8691 20.0895C21.4259 19.8678 21.9017 19.4922 22.2365 19.0105C22.5713 18.5287 22.75 17.9623 22.75 17.3828C22.7491 16.6061 22.4277 15.8614 21.8566 15.3122C21.2854 14.763 20.5109 14.454 19.7031 14.4531Z" fill="#1D2E5B"/>
<path d="M6.29688 21.875C5.37287 21.875 4.46961 21.6115 3.70132 21.1179C2.93304 20.6243 2.33423 19.9227 1.98063 19.1019C1.62702 18.2811 1.53451 17.3778 1.71477 16.5064C1.89504 15.635 2.33999 14.8346 2.99336 14.2064C3.64674 13.5781 4.47918 13.1503 5.38544 12.9769C6.29169 12.8036 7.23105 12.8926 8.08473 13.2326C8.9384 13.5726 9.66805 14.1484 10.1814 14.8871C10.6948 15.6258 10.9688 16.4943 10.9688 17.3828C10.9674 18.5738 10.4748 19.7157 9.59891 20.5578C8.72305 21.4 7.53552 21.8737 6.29688 21.875ZM6.29688 14.4531C5.69426 14.4531 5.10518 14.6249 4.60412 14.9469C4.10307 15.2688 3.71254 15.7263 3.48193 16.2617C3.25132 16.797 3.19098 17.3861 3.30855 17.9544C3.42611 18.5227 3.7163 19.0447 4.14241 19.4544C4.56852 19.8641 5.11142 20.1432 5.70246 20.2562C6.2935 20.3692 6.90612 20.3112 7.46286 20.0895C8.01961 19.8678 8.49547 19.4922 8.83026 19.0105C9.16506 18.5287 9.34375 17.9623 9.34375 17.3828C9.34281 16.6061 9.0215 15.8614 8.4503 15.3122C7.87911 14.763 7.10467 14.454 6.29688 14.4531Z" fill="#1D2E5B"/>
<path d="M16.2501 6.25005C16.4641 6.25076 16.6762 6.21067 16.874 6.1321C17.0718 6.05352 17.2515 5.93802 17.4026 5.79227C17.5537 5.64651 17.6732 5.47341 17.7543 5.28295C17.8354 5.09249 17.8765 4.88847 17.8751 4.68267C17.8774 4.4779 17.8373 4.27473 17.7571 4.08504C17.6768 3.89535 17.558 3.72295 17.4077 3.57792C17.2573 3.43289 17.0784 3.31814 16.8814 3.24038C16.6843 3.16262 16.4732 3.12341 16.2602 3.12505C16.0468 3.12441 15.8354 3.16419 15.638 3.24212C15.4406 3.32005 15.261 3.4346 15.1097 3.57924C14.9583 3.72388 14.8381 3.89577 14.7558 4.0851C14.6735 4.27442 14.6308 4.47748 14.6301 4.68267C14.6295 4.88786 14.6708 5.09116 14.7519 5.28098C14.8329 5.4708 14.9521 5.64341 15.1025 5.78895C15.2529 5.9345 15.4317 6.05013 15.6286 6.12924C15.8255 6.20836 16.0367 6.24941 16.2501 6.25005Z" fill="#1D2E5B"/>
<path d="M18.6646 9.37504H16.4425C16.406 9.37505 16.3702 9.36563 16.3389 9.34776C16.3075 9.32989 16.2817 9.30423 16.2642 9.27348L14.6524 6.43315C14.5389 6.22207 14.3752 6.03967 14.1747 5.90071C13.9742 5.76175 13.7425 5.67014 13.4983 5.6333C13.2541 5.59645 13.0044 5.6154 12.7692 5.68862C12.5341 5.76183 12.3202 5.88725 12.1448 6.05473L8.59727 9.49223C8.29923 9.78473 8.13006 10.1765 8.125 10.586C8.125 11.4356 8.76484 11.7383 9.06445 11.9092C10.5117 12.711 11.5309 13.2974 12.09 13.6231C12.1197 13.6405 12.1443 13.6649 12.1614 13.6941C12.1784 13.7233 12.1874 13.7561 12.1875 13.7896V17.1646C12.1875 17.585 12.5237 17.9458 12.9609 17.9668C13.0707 17.9719 13.1804 17.9555 13.2834 17.9187C13.3864 17.8818 13.4805 17.8253 13.5601 17.7524C13.6397 17.6796 13.7032 17.5919 13.7465 17.4949C13.7899 17.3978 13.8124 17.2932 13.8125 17.1875V12.9883C13.8126 12.8643 13.7819 12.742 13.7231 12.6317C13.6643 12.5213 13.579 12.426 13.4743 12.3536L11.5954 11.0542C11.5718 11.038 11.5521 11.0171 11.5376 10.993C11.5231 10.9688 11.5142 10.942 11.5114 10.9142C11.5086 10.8864 11.512 10.8584 11.5214 10.8321C11.5309 10.8057 11.546 10.7815 11.5659 10.7613L13.6988 8.57426C13.7206 8.55176 13.7477 8.53455 13.7778 8.52404C13.8079 8.51352 13.8402 8.51001 13.872 8.51377C13.9038 8.51753 13.9342 8.52846 13.9607 8.54568C13.9873 8.5629 14.0092 8.58591 14.0248 8.61284L15.1328 10.5357C15.2032 10.6576 15.3063 10.7591 15.4313 10.8298C15.5563 10.9005 15.6987 10.9377 15.8438 10.9375H18.6875C18.7976 10.9377 18.9065 10.9163 19.0077 10.8747C19.109 10.8331 19.2003 10.7722 19.2763 10.6956C19.3523 10.619 19.4113 10.5284 19.4497 10.4292C19.4882 10.3301 19.5053 10.2244 19.5 10.1187C19.4787 9.69829 19.1019 9.37504 18.6646 9.37504Z" fill="#1D2E5B"/>
</svg>

<svg width="26" height="25" fill="none" xmlns="http://www.w3.org/2000/svg"><path d="M19.703 21.875a4.806 4.806 0 0 1-2.595-.757 4.535 4.535 0 0 1-1.721-2.016 4.333 4.333 0 0 1-.266-2.596 4.441 4.441 0 0 1 1.279-2.3 4.733 4.733 0 0 1 2.392-1.23 4.846 4.846 0 0 1 2.699.257c.854.34 1.583.915 2.097 1.654a4.37 4.37 0 0 1 .787 2.496 4.411 4.411 0 0 1-1.37 3.175 4.773 4.773 0 0 1-3.302 1.317Zm0-7.422c-.602 0-1.192.172-1.693.494-.5.322-.891.78-1.122 1.315a2.825 2.825 0 0 0-.173 1.692c.117.569.407 1.09.834 1.5.426.41.969.69 1.56.802a3.161 3.161 0 0 0 1.76-.166 3.024 3.024 0 0 0 1.367-1.08 2.85 2.85 0 0 0 .514-1.627c0-.777-.322-1.522-.893-2.07a3.114 3.114 0 0 0-2.154-.86ZM6.297 21.875a4.806 4.806 0 0 1-2.596-.757 4.535 4.535 0 0 1-1.72-2.016 4.332 4.332 0 0 1-.266-2.596 4.441 4.441 0 0 1 1.278-2.3 4.733 4.733 0 0 1 2.392-1.23 4.846 4.846 0 0 1 2.7.257c.853.34 1.583.915 2.096 1.654a4.37 4.37 0 0 1 .788 2.496 4.411 4.411 0 0 1-1.37 3.175 4.773 4.773 0 0 1-3.302 1.317Zm0-7.422c-.603 0-1.192.172-1.693.494-.5.322-.891.78-1.122 1.315a2.825 2.825 0 0 0-.173 1.692c.117.569.407 1.09.833 1.5.427.41.97.69 1.56.802a3.161 3.161 0 0 0 1.76-.166 3.025 3.025 0 0 0 1.368-1.08 2.85 2.85 0 0 0 .514-1.627c-.001-.777-.322-1.522-.894-2.07a3.113 3.113 0 0 0-2.153-.86ZM16.25 6.25c.214 0 .426-.04.624-.118.198-.078.378-.194.529-.34.15-.145.27-.319.351-.51.081-.19.122-.394.121-.6a1.49 1.49 0 0 0-.118-.597c-.08-.19-.199-.362-.35-.507-.15-.145-.329-.26-.526-.338a1.659 1.659 0 0 0-.62-.115c-.214 0-.426.04-.623.117a1.63 1.63 0 0 0-.528.337 1.56 1.56 0 0 0-.354.506 1.511 1.511 0 0 0 .346 1.704 1.681 1.681 0 0 0 1.148.461Z" fill="#1D2E5B"/><path d="M18.665 9.375h-2.223a.209.209 0 0 1-.103-.027.199.199 0 0 1-.075-.075l-1.612-2.84a1.532 1.532 0 0 0-.477-.532 1.634 1.634 0 0 0-1.405-.212 1.587 1.587 0 0 0-.625.366L8.597 9.492a1.56 1.56 0 0 0-.472 1.094c0 .85.64 1.152.94 1.323 1.447.802 2.466 1.388 3.025 1.714a.19.19 0 0 1 .098.166v3.376c0 .42.336.78.773.802a.843.843 0 0 0 .6-.215.78.78 0 0 0 .252-.564v-4.2a.756.756 0 0 0-.09-.356.79.79 0 0 0-.249-.278l-1.879-1.3a.198.198 0 0 1-.084-.14.188.188 0 0 1 .055-.153l2.133-2.187a.203.203 0 0 1 .173-.06.208.208 0 0 1 .153.099l1.108 1.923c.07.122.173.223.298.294.125.07.268.108.413.107h2.844a.839.839 0 0 0 .588-.241.776.776 0 0 0 .224-.577c-.021-.42-.398-.744-.835-.744Z" fill="#1D2E5B"/></svg>
